X:1
T: The Cairdin' O't
C:
R:Reel
Q: 232
K:A
M:4/4
L:1/8
E|A2 AB cB cd|e2 af ec BA|dc df ec BA|GA Bc B2 -Bc|dc de fg af|ec BA AG FE|A2 AB ce Bd|c2 A2 A2 E2|
A2 AB cB cd|e2 af ec BA|dc df ec BA|GA Bc B2 -Bc|dc de fg af|ec BA AG FE|A2 AB ce Bd|c2 A2 A2 af|
ec Ac e2 af|ec Ac e2 c2|dc de fg af|g2 e2 e2 dc|dc de fg af|ec BA AG FE|A3B ce Be|c2 A2 A2 af|
ec Ac e2 af|ec Ac e2 c2|dc de fg af|g2 e2 e2 dc|dc de fg af|ec BA AG FE|A3B ce Be|c2 A2 A2||
